!! 00000] TT[00
!! NN
!!!OTL: Zuo lou ge
!!!ARE: Asia, China,ÿZhejiang, Daishan
!! Ethnic Group: Han
!! III, 634
!!!SCT: C0361
!!!YEM: Copyright 1995, estate of Helmut Schaffrath.
**kern
*ICvox
*Ivox
*M2/4
*k[f#c#g#]
*A:
{16cc#
16cc#
16cc#
16ee
8ff#
16ee
16cc#
=1
8ee
16ee
16cc#
8b
16r
16cc#
=2
8b
8f#
8b
8f#}
=3
{16a
16cc#
16b
16a
8b
16a
16f#
=4
8a
8e
8.f#
16b
=5
8a
8f#
8a
8f#}
=6
{8c#
16c#
16e
8.f#
16b
=7
16a
16cc#
16b
16a
8f#
8f#}
=8
{8cc#
8b
8b
16a
16f#
=9
4a
8e
16c#
16e
=10
4f#}
{8r
16g#
16g#
=11
8f#
8cc#
8f#
8cc#
=12
8a
8f#
8a
8f#
=13
4cc#
16b
16cc#
16b
16a
=14
2f#}
==
!!!AGN: Haozi, Tiaodan haozi. Tiaoyan shenghuo
!! Die Fuellwoerter symbolisieren Lastentragen.
!!    Vereinzelt Verzierungen, Glissando.
!!!ONB: ESAC (Essen Associative Code) Database: CHINA
!!!AMT: simple duple
!!!AIN: vox
!!!EED: Helmut Schaffrath
!!!EEV: 1.0
*-
